T: Camowen, The
M: 2/4
L: 1/8
K: Gmaj
BA|:G2 G>B|DG BD|{A}B2 BA|B2 B/c/d|
B2 BA|Bd GB|A2 A^G|A2 FD|
A2 A>B|cD ED|F2 FE|F3 G|Ad fe|
[1de cd|B2 BA|BD BA:|
[2dc AF|G2 GF| G2 fe||
|:ef/e/ dB|AB/A/ G>A|Bd ef|g2 fg|
eA AB|d>e dB|GB AG|E2 G>A|
Bd dB|d2 e/f/g|dB AG|B2 Bd|
g>e dB|AG AB|d>B AB|1Gg gf:|2GD BA||
